usr/share/icons/biglinux-icons-material/symbolic/actions/align-vertical-top-to-anchor-symbolic.svg

<svg width="16" height="16" version="1.1" viewBox="0 0 4.233 4.233" xmlns="http://www.w3.org/2000/svg">
 <path d="m4.233 1.5874h-0.263v-1.4544c5.698e-4 -0.074081-0.059925-0.13412-0.134-0.133h-1.058c-0.072902 0-0.132 0.059098-0.132 0.132v1.4544h-2.646v0.26562h0.53v2.249c0 0.073 0.058 0.132 0.131 0.132h1.059c0.072902 0 0.132-0.059098 0.132-0.132v-2.249h0.265v1.455c0 0.074 0.059 0.133 0.132 0.133h1.058c0.073685 5.604e-4 0.13356-0.059315 0.133-0.133v-1.455h0.793zm-0.529-1.3224v1.3224h-0.794v-1.3224zm-0.529 1.587v1.323h-0.794v-1.323zm-1.587 0v2.118h-0.794v-2.118z" fill="#363636"/>
</svg>

<svg xmlns="http://www.w3.org/2000/svg" width="16" height="16" viewBox="0 0 4.233 4.233"><path fill="#dedede" d="M4.233 1.323H3.97V.133A.132.132 0 0 0 3.836 0H2.778a.132.132 0 0 0-.132.132v1.19H0v.53h.53v2.249c0 .073.058.132.131.132H1.72a.132.132 0 0 0 .132-.132V1.852h.265v1.455c0 .074.059.133.132.133h1.058a.132.132 0 0 0 .133-.133V1.852h.793zM3.704.265v1.058H2.91V.265zm-.529 1.587v1.323h-.794V1.852zm-1.587 0V3.97H.794V1.852z" style="marker:none"/><rect width="1.323" height=".794" x=".265" y="-3.704" fill="#dedede" fill-opacity=".931" opacity=".3" rx="0" ry="0" style="marker:none" transform="rotate(90)"/><path fill="#dedede" fill-opacity=".931" d="M3.175 1.587h-.794v1.588h.794zm-1.587 0H.794V3.97h.794z" opacity=".1"/></svg>
